X: 45
T: Ma tres souveraine princesse
N: Derived from Bus3041-Ma_tres_souveraine_princesse.krn
C: Antoine Busnoys
%%abc-version 2.0
%%abcx-abcm2ps-target-version 5.9.1 (29 Sep 2008)
%%abc-creator hum2abc beta
%%abcx-conversion-date 2019/02/16 20:26:07
%%abc-edited-by Jesse Rodin
%%abc-edited-by Chris Gage 04-13-2015
%%abcx-initial-encoding-date 2015/05/06/
%%humdrum-veritas 4286346634
%%humdrum-veritas-data 3834644817
%%linebreak <none>
%%barnumbers 0
L: 1/4
M: 2/1
Q: 1/2=120
V: 1 clef=treble
V: 2 clef=treble-8
V: 3 clef=bass
K: F
[V:1] G8 | 
[V:2] z8 | 
[V:3] G,,8 | 
[V:1] F4G4 | 
[V:2] z4G4- | 
[V:3] A,,4G,,4 | 
[V:1] B4A4 | 
[V:2] G4F4 | 
[V:3] G,3F,D,4 | 
[V:1] G4d4 | 
[V:2] G4B4 | 
[V:3] G,,4z2G,2- | 
[V:1] c2A2B4 | 
[V:2] A4G4 | 
[V:3] G,2F,2G,2E,2 | 
[V:1] A2F2G4 | 
[V:2] d4e4 | 
[V:3] F,4E,4 | 
[V:1] A4D2F2- | 
[V:2] f6d2 | 
[V:3] D,6B,,2 | 
[V:1] F2G2A2B2 | 
[V:2] d4c2d2- | 
[V:3] B,,4z2B,,2 | 
[V:1] A2c4B2 | 
[V:2] d2c2A2B2 | 
[V:3] D,2E,2F,2G,2 | 
[V:1] G4F2B2 | 
[V:2] c4d3B | 
[V:3] E,4D,2D2 | 
[V:1] AGG4^F2 | 
[V:2] c2B2A4 | 
[V:3] C2D2D,4 | 
[V:1] G8 | 
[V:2] G8- | 
[V:3] G,,4C,3B,, | 
[V:1] z4D4 | 
[V:2] G8 | 
[V:3] G,,8 | 
[V:1] E4E4 | 
[V:2] z4G4 | 
[V:3] C,8 | 
[V:1] D4G4- | 
[V:2] B6c2 | 
[V:3] B,,4G,,4 | 
[V:1] G2F2G2A2 | 
[V:2] d4e4 | 
[V:3] z4C,4 | 
[V:1] B4A4 | 
[V:2] d4f4 | 
[V:3] G,4F,3E, | 
[V:1] c4B2G2- | 
[V:2] e2c2d4 | 
[V:3] C,4G,,4 | 
[V:1] G2d4c2 | 
[V:2] c2B2A4 | 
[V:3] z2G,2A,2F,2 | 
[V:1] B2A2c4 | 
[V:2] G2A4F2 | 
[V:3] G,2D,3C,A,,2 | 
[V:1] B2A4F2 | 
[V:2] G2F2D4 | 
[V:3] G,,2D,3E,F,2 | 
[V:1] G4A4 | 
[V:2] z2G4F2 | 
[V:3] E,4D,4 | 
[V:1] G2c4B2- | 
[V:2] G2A4G2 | 
[V:3] z2F,4G,2 | 
[V:1] BAA4G2 | 
[V:2] A4B4 | 
[V:3] F,4G,4 | 
[V:1] A6GF | 
[V:2] A4d4 | 
[V:3] D,8 | 
[V:1] E8- | 
[V:2] c8 | 
[V:3] A,,8- | 
[V:1] E8 | 
[V:2] z4c4 | 
[V:3] A,,8 | 
[V:1] z4D4 | 
[V:2] d4f4- | 
[V:3] D,8 | 
[V:1] F6G2 | 
[V:2] f2e2d4 | 
[V:3] z4D,4 | 
[V:1] A4A4 | 
[V:2] c4c4 | 
[V:3] F,4F,4 | 
[V:1] B6AG | 
[V:2] d6cB | 
[V:3] B,,6C,2 | 
[V:1] F4G4 | 
[V:2] A4B4 | 
[V:3] D,4G,4 | 
[V:1] A6GF | 
[V:2] A4d2d2- | 
[V:3] F,2D,3E,F,G, | 
[V:1] E4D2F2- | 
[V:2] d2^c2d4 | 
[V:3] A,4D,4- | 
[V:1] F2E2D4 | 
[V:2] D2E2F2G2 | 
[V:3] D,2C,2B,,4 | 
[V:1] C4A,2C2 | 
[V:2] A4z2A2 | 
[V:3] A,,4D,2C,2 | 
[V:1] D2E4F2- | 
[V:2] B2G2A4 | 
[V:3] B,,2C,2A,,2D,2- | 
[V:1] FED4^C2 | 
[V:2] D2F2E4 | 
[V:3] D,2D,2A,,4 | 
[V:1] D4z4 | 
[V:2] D8 | 
[V:3] A,4F,3D, | 
[V:1] A4B4 | 
[V:2] z4G4 | 
[V:3] D,4G,,4 | 
[V:1] c4d4- | 
[V:2] A4B4 | 
[V:3] z4G,,4- | 
[V:1] d2c2B4 | 
[V:2] G4d4- | 
[V:3] G,,2A,,2B,,2C,2 | 
[V:1] A4G4 | 
[V:2] d2c2B4 | 
[V:3] D,4G,4 | 
[V:1] A2c4B2 | 
[V:2] A4F2G2 | 
[V:3] F,2A,4G,2 | 
[V:1] A4F2G2 | 
[V:2] A2D4G2- | 
[V:3] F,3E,D,2C,B,, | 
[V:1] A4D3E | 
[V:2] G2^F2G2B2- | 
[V:3] A,,4G,,4 | 
[V:1] F2G2A2B2 | 
[V:2] BAG2F2G2 | 
[V:3] z2G,,2D,2B,,2 | 
[V:1] c3AB2AG | 
[V:2] A2F2G2FE | 
[V:3] A,,2D,2G,,2A,,2 | 
[V:1] F2GAB2A2- | 
[V:2] D2d4c2 | 
[V:3] B,,3C,D,E,F,2 | 
[V:1] AGG4^F2 | 
[V:2] B2G2A4 | 
[V:3] G,2E,2D,4 | 
[V:1] G8 |]  
[V:2] G8 |]  
[V:3] G,,8 |]  



